X: 1
T:Up and Down Again  "Scottish 'Brose and Butter'"
M:9/8
L:1/8
Q:80
C:Traditional
S:Jig
K:HP
|: {g}def{g}B{d}B{e}B{g}B{d}B{e}B|
{g}def{g}B{d}B{e}B{g}e{g}c{d}A|
{g}def{g}B{d}B{e}B{g}B{d}B{e}B|  !
{g}cBA{g}Aaf{g}e{g}c{d}A:| |:
{g}def{g}faf{g}faf|
d{g}d{e}d{g}faf{g}e{g}c{d}A|  !
{g}def{g}faf{g}f{e}f{g}f|
{a}gfe{g}faf{g}e{g}c{d}A:|
